static/img/logo/airbyte.svg

<svg width="24" viewBox="0 0 27 28" fill="none" xmlns="http://www.w3.org/2000/svg"><path fill-rule="evenodd" clip-rule="evenodd" d="M9.46065 3.90189C12.3134 0.696762 17.0374 -0.243461 20.9212 1.60659C26.0813 4.0649 27.9638 10.3272 25.1544 15.1577L18.8344 26.0125C18.4812 26.619 17.9 27.0616 17.2185 27.243C16.537 27.4244 15.8108 27.3298 15.1995 26.98L22.851 13.8358C24.8893 10.3299 23.5259 5.78549 19.7848 3.99623C16.9778 2.65378 13.5464 3.32441 11.4727 5.63313C10.3288 6.90055 9.68663 8.53691 9.66522 10.2387C9.64381 11.9406 10.2447 13.5923 11.3562 14.8878C11.556 15.1202 11.771 15.3393 11.9998 15.5438L7.53285 23.2309C7.35817 23.5314 7.1256 23.7949 6.8484 24.0061C6.57121 24.2174 6.25483 24.3723 5.91733 24.4622C5.57983 24.552 5.22781 24.5749 4.88138 24.5297C4.53495 24.4844 4.2009 24.3719 3.89828 24.1984L8.74759 15.8528C8.05101 14.8556 7.55079 13.7364 7.27329 12.5545L4.30172 17.6788C3.94849 18.2853 3.3673 18.7279 2.68578 18.9093C2.00426 19.0907 1.2781 18.9961 0.666748 18.6462L8.35124 5.42827C8.67109 4.88546 9.0426 4.37433 9.46065 3.90189ZM18.3301 8.10921C20.1807 9.17058 20.8199 11.531 19.749 13.3681L12.3801 26.011C12.0269 26.6175 11.4457 27.06 10.7642 27.2414C10.0827 27.4228 9.3565 27.3282 8.74515 26.9784L15.5874 15.2078C15.0384 15.0931 14.5211 14.8614 14.071 14.5288C13.621 14.196 13.249 13.7704 12.9808 13.2811C12.7125 12.7917 12.5544 12.2504 12.5174 11.6945C12.4804 11.1386 12.5653 10.5813 12.7663 10.0612C12.9672 9.54102 13.2795 9.07031 13.6815 8.68167C14.0834 8.29302 14.5656 7.99567 15.0946 7.81009C15.6235 7.62451 16.1867 7.55515 16.7454 7.60679C17.304 7.65843 17.8447 7.82984 18.3301 8.10921ZM15.6497 10.4852C15.5231 10.5818 15.4168 10.7022 15.337 10.8395H15.3366C15.2164 11.0463 15.1607 11.2839 15.1764 11.5222C15.1922 11.7604 15.2787 11.9888 15.4251 12.1782C15.5716 12.3676 15.7712 12.5097 15.9989 12.5864C16.2267 12.6632 16.4722 12.6712 16.7045 12.6094C16.9368 12.5475 17.1454 12.4187 17.3039 12.2392C17.4624 12.0596 17.5638 11.8374 17.5952 11.6007C17.6266 11.3639 17.5866 11.1232 17.4802 10.909C17.3739 10.6948 17.2059 10.5168 16.9977 10.3974C16.8594 10.3181 16.7068 10.2667 16.5485 10.2459C16.3902 10.2253 16.2293 10.2357 16.0751 10.2768C15.9209 10.3179 15.7764 10.3886 15.6497 10.4852Z" fill="#615EFF"></path></svg>

<svg xmlns="http://www.w3.org/2000/svg" width="24" fill="none" viewBox="0 0 27 28"><path fill="#615eff" fill-rule="evenodd" d="M9.46 3.902C12.314.697 17.038-.243 20.922 1.607c5.16 2.458 7.043 8.72 4.233 13.55l-6.32 10.856a2.66 2.66 0 0 1-1.616 1.23 2.68 2.68 0 0 1-2.018-.263l7.651-13.144c2.038-3.506.675-8.05-3.066-9.84-2.807-1.342-6.239-.672-8.312 1.637a7 7 0 0 0-1.808 4.606A7 7 0 0 0 12 15.544L7.533 23.23a2.65 2.65 0 0 1-1.616 1.231 2.68 2.68 0 0 1-2.019-.264l4.85-8.345a9.6 9.6 0 0 1-1.475-3.298l-2.971 5.124a2.66 2.66 0 0 1-1.616 1.23 2.68 2.68 0 0 1-2.02-.263L8.352 5.428a10 10 0 0 1 1.11-1.526m8.87 4.207c1.85 1.062 2.49 3.422 1.419 5.26L12.38 26.01a2.66 2.66 0 0 1-1.616 1.23 2.68 2.68 0 0 1-2.019-.263l6.842-11.77a3.9 3.9 0 0 1-1.516-.68 3.9 3.9 0 0 1-1.09-1.247 3.83 3.83 0 0 1 .7-4.6 3.88 3.88 0 0 1 3.064-1.074c.559.051 1.1.223 1.585.502m-2.68 2.376a1.201 1.201 0 0 0 .35 2.101 1.22 1.22 0 0 0 1.304-.347 1.204 1.204 0 0 0-.755-1.993 1.23 1.23 0 0 0-.9.24" clip-rule="evenodd"/></svg>
